X: 073
T: the Devonshire House - for the fife
%R: reel
Z: 2017 John Chambers <jc:trillian.mit.edu>
B: John Treat - "Gamut for the Fifes", 1779, p.6 #3
F: https://archive.org/details/GamutFortheFifes
M: 2/4
L: 1/16
K: G
% - - - - - - - - - - - - - - - - - - - - - - - - -
|:\
GDB,D GDB,D | AGAB A2A2 | GDB,D GDB,D | AGAB G4 ::\
d2d2  d2BG  | edef g2g2 | d2d2  d2BG  | AGAB G4 :|
% - - - - - - - - - - - - - - - - - - - - - - - - -
